docs/assets/img/footer_icon_github.svg

<?xml version="1.0" encoding="UTF-8"?>
<svg width="36px" height="36px" viewBox="0 0 36 36" version="1.1" xmlns="http://www.w3.org/2000/svg" xmlns:xlink="http://www.w3.org/1999/xlink">
    <!-- Generator: Sketch 52.6 (67491) - http://www.bohemiancoding.com/sketch -->
    <title>Path</title>
    <desc>Created with Sketch.</desc>
    <g id="Symbols" stroke="none" stroke-width="1" fill="none" fill-rule="evenodd">
        <g id="footer/A-1" transform="translate(-1117.000000, -30.000000)" fill="#9EAFBF">
            <g id="Group" transform="translate(997.000000, 30.000000)">
                <g id="GitHub" transform="translate(120.000000, 0.000000)">
                    <path d="M17.9702479,0 C8.03305785,0 0,8.03305785 0,17.9702479 C0,25.9140496 5.14710744,32.6380165 12.2876033,35.0181818 C13.1801653,35.1966942 13.507438,34.631405 13.507438,34.1553719 C13.507438,33.738843 13.477686,32.3107438 13.477686,30.8231405 C8.47933884,31.8942149 7.43801653,28.6809917 7.43801653,28.6809917 C6.63471074,26.5983471 5.4446281,26.0628099 5.4446281,26.0628099 C3.80826446,24.9619835 5.56363636,24.9619835 5.56363636,24.9619835 C7.3785124,25.0809917 8.33057851,26.8066116 8.33057851,26.8066116 C9.93719008,29.5438017 12.5256198,28.7702479 13.5669421,28.2942149 C13.7157025,27.1338843 14.1917355,26.3305785 14.6975207,25.8842975 C10.7107438,25.4677686 6.51570248,23.9206612 6.51570248,17.0181818 C6.51570248,15.0545455 7.22975207,13.4479339 8.36033058,12.1983471 C8.18181818,11.7520661 7.55702479,9.90743802 8.53884298,7.43801653 C8.53884298,7.43801653 10.0561983,6.96198347 13.477686,9.28264463 C14.9057851,8.89586777 16.4528926,8.68760331 17.9702479,8.68760331 C19.4876033,8.68760331 21.0347107,8.89586777 22.4628099,9.28264463 C25.8842975,6.96198347 27.4016529,7.43801653 27.4016529,7.43801653 C28.3834711,9.90743802 27.7586777,11.7520661 27.5801653,12.1983471 C28.7404959,13.4479339 29.4247934,15.0545455 29.4247934,17.0181818 C29.4247934,23.9206612 25.2297521,25.4380165 21.2132231,25.8842975 C21.8677686,26.4495868 22.4330579,27.5206612 22.4330579,29.2165289 C22.4330579,31.6264463 22.4033058,33.5603306 22.4033058,34.1553719 C22.4033058,34.631405 22.7305785,35.1966942 23.6231405,35.0181818 C30.7636364,32.6380165 35.9107438,25.9140496 35.9107438,17.9702479 C35.9404959,8.03305785 27.877686,0 17.9702479,0 Z" id="Path"></path>
                </g>
            </g>
        </g>
    </g>
</svg>

<svg xmlns="http://www.w3.org/2000/svg" viewBox="0 0 36 36"><path d="M17.97 0C8.033 0 0 8.033 0 17.97c0 7.944 5.147 14.668 12.288 17.048.892.179 1.22-.387 1.22-.863 0-.416-.03-1.844-.03-3.332-4.999 1.071-6.04-2.142-6.04-2.142-.803-2.083-1.993-2.618-1.993-2.618-1.637-1.101.119-1.101.119-1.101 1.815.119 2.767 1.845 2.767 1.845 1.606 2.737 4.195 1.963 5.236 1.487.149-1.16.625-1.963 1.13-2.41-3.986-.416-8.181-1.963-8.181-8.866 0-1.963.714-3.57 1.844-4.82-.178-.446-.803-2.29.179-4.76 0 0 1.517-.476 4.939 1.845a17.398 17.398 0 0 1 4.492-.595c1.518 0 3.065.208 4.493.595 3.421-2.321 4.939-1.845 4.939-1.845.981 2.47.357 4.314.178 4.76 1.16 1.25 1.845 2.857 1.845 4.82 0 6.903-4.195 8.42-8.212 8.866.655.566 1.22 1.637 1.22 3.333 0 2.41-.03 4.343-.03 4.938 0 .476.328 1.042 1.22.863 7.14-2.38 12.288-9.104 12.288-17.048C35.94 8.033 27.878 0 17.97 0z"/></svg>
